X:1
T:Christus, der ist mein Leben
T:Melchior Vulpius, 1609
T:Ev. Gesangsbuch 516
T:Christus, der ist mein Leben
T:CPDL - Creative Commons Attribution Non Commercial 3.0
C:Melchior Vulpius
Z:Ev. Gesangsbuch 516
Z:CPDL - Creative Commons Attribution Non Commercial 3.0
%%score [ ( 1 2 ) ( 3 4 ) ]
L:1/8
M:4/4
K:F
V:1 treble nm="S\nA"
V:2 treble 
V:3 bass nm="T\nB"
V:4 bass 
V:1
 F4 | A2 G2 A2 B2 | c4 A2 d2 | c2 B2 A2 G2 | A6 | c2 | d2 d2 e2 f2 | d4 c2 A2 | G2 F2 F2 E2 | %9
w: 1.~Chris-|tus der ist mein|Le- ben, Ster-|ben ist mein Ge-|winn;|1.~dem|tu ich mich er-|ge- ben, mit|Fried fahr ich da-|
w: 2.~Mit|Freud fahr ich von|dan- nen zu|Christ, dem Bru- der|mein,|2.~auf|dass ich zu ihm|kom- me und|e- wig bei ihm|
w: 3.~Ich|hab nun ü- ber-|wun- den Kreuz,|Lei- den, Angst und|Not;|3.~durch|sei- ne heil- gen|Wun- den bin|ich ver- söhnt mit|
 !fermata!F4 |] %10
w: hin.|
w: sei.|
w: Gott.|
V:2
 F4 | F2 E2 F2 F2 | E4 F2 F2 | F2 D2 F2 E2 | F6 | F2 | F2 F2 G2 F2 | F4 F2 F2 | D2 C2 D2 C2 | C4 |] %10
V:3
 C4 | C2 C2 C2 D2 | G,4 C2 B,2 | A,2 B,2 C2 C2 | C6 | A,2 | B,2 A,2 C2 C2 | B,4 A,2 C2 | %8
w: 4.~Wenn|mei- ne Kräf- te|bre- chen, mein|A- tem geht schwer|aus|4.~und|kann kein Wort mehr|spre- chen: Herr,|
w: 7.~In|dir, Herr lass mich|le- ben und|blei- ben al- le-|zeit,|7.~so|wirst du mir einst|ge- ben des|
 B,2 A,2 G,2 G,2 | A,4 |] %10
w: nimm mein Seuf- zen|auf!|
w: Him- mels Wonn und|Freud.|
V:4
 F,4 | F,2 C,2 F,2 D,2 | C,4 F,,2 B,,2 | F,2 G,2 F,2 C,2 | F,6 | F,2 | B,,2 D,2 C,2 A,,2 | %7
 B,,4 F,,2 F,,2 | G,,2 A,,2 B,,2 C,2 | F,,4 |] %10

